packages/icons/general/Edit2.svg

<svg width="24" height="24" viewBox="0 0 24 24" xmlns="http://www.w3.org/2000/svg">
<g>
        <path d="M20 19.2494C20.1989 19.2494 20.3897 19.3284 20.5303 19.4691C20.671 19.6097 20.75 19.8005 20.75 19.9994C20.75 20.1983 20.671 20.3891 20.5303 20.5298C20.3897 20.6704 20.1989 20.7494 20 20.7494H4C3.80109 20.7494 3.61032 20.6704 3.46967 20.5298C3.32902 20.3891 3.25 20.1983 3.25 19.9994C3.25 19.8005 3.32902 19.6097 3.46967 19.4691C3.61032 19.3284 3.80109 19.2494 4 19.2494H20ZM16.76 2.81143L19.064 5.11443C19.289 5.33947 19.4154 5.64468 19.4154 5.96293C19.4154 6.28117 19.289 6.58639 19.064 6.81143L9.264 16.6114C9.15256 16.723 9.02022 16.8115 8.87454 16.8719C8.72886 16.9323 8.5727 16.9634 8.415 16.9634H5.512C5.35287 16.9634 5.20026 16.9002 5.08774 16.7877C4.97521 16.6752 4.912 16.5226 4.912 16.3634V13.4594C4.91201 13.3017 4.9431 13.1456 5.0035 12.9999C5.0639 12.8542 5.15242 12.7219 5.264 12.6104L15.064 2.81043C15.289 2.5854 15.5943 2.45898 15.9125 2.45898C16.2308 2.45898 16.536 2.5854 16.761 2.81043L16.76 2.81143ZM15.912 4.08443L6.412 13.5844V15.4634H8.291L17.791 5.96343L15.912 4.08343V4.08443Z" />
    </g>
</svg>

<svg xmlns="http://www.w3.org/2000/svg" width="24" height="24">
    <path d="M20 19.25a.75.75 0 1 1 0 1.5H4a.75.75 0 1 1 0-1.5h16ZM16.76 2.81l2.304 2.303a1.2 1.2 0 0 1 0 1.697l-9.8 9.8a1.2 1.2 0 0 1-.849.352H5.512a.6.6 0 0 1-.6-.6V13.46a1.2 1.2 0 0 1 .352-.849l9.8-9.8a1.2 1.2 0 0 1 1.697 0l-.001.001Zm-.848 1.273-9.5 9.5v1.88h1.879l9.5-9.5-1.879-1.88Z"/>
</svg>
